image/icon6.svg

<svg fill="none" height="24" viewBox="0 0 24 24" width="24" xmlns="http://www.w3.org/2000/svg" xmlns:xlink="http://www.w3.org/1999/xlink"><clipPath id="a"><path d="m0 0h24v24h-24z"/></clipPath><g clip-path="url(#a)" fill="#1e1e1e"><path d="m10.4259.652017c.8693-.869358 2.2789-.869355 3.1482.000002l9.7739 9.773881c.8693.8693.8693 2.2789 0 3.1482l-9.7739 9.7739c-.8693.8693-2.2789.8693-3.1482 0l-9.773883-9.7739c-.869358-.8693-.869355-2.2789.000002-3.1482zm2.0988 1.049413c-.2898-.28979-.7596-.28979-1.0494-.00001l-9.77387 9.77388c-.28979.2898-.28979.7596-.00001 1.0494l9.77388 9.7739c.2898.2898.7596.2898 1.0494 0l9.7739-9.7739c.2898-.2898.2898-.7596 0-1.0494z"/><path d="m10.5023 16.5c0-.8284.6716-1.5 1.5-1.5s1.5.6716 1.5 1.5-.6716 1.5-1.5 1.5-1.5-.6716-1.5-1.5z"/><path d="m10.6493 7.49256c-.08-.79913.5476-1.49256 1.3507-1.49256s1.4307.69343 1.3507 1.49256l-.5261 5.26114c-.0423.4237-.3988.7463-.8246.7463s-.7823-.3226-.8246-.7463z"/></g></svg>

<svg width="24" height="24" viewBox="0 0 24 24" fill="none" xmlns="http://www.w3.org/2000/svg">
<g clip-path="url(#clip0_2027_2031)">
<path d="M10.4259 0.652017C11.2952 -0.217341 12.7048 -0.217338 13.5741 0.652019L23.348 10.4259C24.2173 11.2952 24.2173 12.7048 23.348 13.5741L13.5741 23.348C12.7048 24.2173 11.2952 24.2173 10.4259 23.348L0.652017 13.5741C-0.217341 12.7048 -0.217338 11.2952 0.652019 10.4259L10.4259 0.652017ZM12.5247 1.70143C12.2349 1.41164 11.7651 1.41164 11.4753 1.70142L1.70143 11.4753C1.41164 11.7651 1.41164 12.2349 1.70142 12.5247L11.4753 22.2986C11.7651 22.5884 12.2349 22.5884 12.5247 22.2986L22.2986 12.5247C22.5884 12.2349 22.5884 11.7651 22.2986 11.4753L12.5247 1.70143Z" fill="#1E1E1E"/>
<path d="M10.5023 16.5C10.5023 15.6716 11.1739 15 12.0023 15C12.8307 15 13.5023 15.6716 13.5023 16.5C13.5023 17.3284 12.8307 18 12.0023 18C11.1739 18 10.5023 17.3284 10.5023 16.5Z" fill="#1E1E1E"/>
<path d="M10.6493 7.49256C10.5693 6.69343 11.1969 6 12 6C12.8031 6 13.4307 6.69343 13.3507 7.49256L12.8246 12.7537C12.7823 13.1774 12.4258 13.5 12 13.5C11.5742 13.5 11.2177 13.1774 11.1754 12.7537L10.6493 7.49256Z" fill="#1E1E1E"/>
</g>
<defs>
<clipPath id="clip0_2027_2031">
<rect width="24" height="24" fill="white"/>
</clipPath>
</defs>
</svg>
